X: 081951
T: Humors of Old Knockaney
S: "Roche Collection of Traditional Irish Music" [III/25/83]
L: 1/8
M: 4/4
R: reel
K: Ador
c2 ef g2 ee | c2 eA dBGB | c2 ef g2 eA | dBGB BA A2 |
c2 ef g2 eA | c2 eA dBGB | ceef geaf | gedB BA A2 ||
AB (3cBA eA (3cBA | G3B dBGB | AB (3cBA eA (3cBA | dBGB BA A2 |
AB (3cBA eA (3cBA | G3B dBGB | c>ccA B>BBA | GEDB, A,2 A,2 |]
